svgs/thin/square-up-right.svg

<svg xmlns="http://www.w3.org/2000/svg" viewBox="0 0 448 512"><!--! Font Awesome Pro 6.3.0 by @fontawesome - https://fontawesome.com License - https://fontawesome.com/license (Commercial License) Copyright 2023 Fonticons, Inc. --><path d="M122.1 289.1c-9.373 9.371-9.494 24.69-.1234 34.06l33.94 33.94c9.371 9.371 24.69 9.248 34.06-.1234l73.42-73.42l31.6 31.6C310.1 331.2 336 320.5 336 299.1V168c-.002-6.629-2.686-12.62-7.029-16.97S318.6 144 312 144H180.9c-21.38 0-32.09 25.85-16.97 40.97l31.6 31.6L122.1 289.1zM133.3 301.4l84.85-84.86L175.3 173.7C171.9 170.2 172.9 166.4 173.5 164.9C174.2 163.5 176.1 160 180.9 160H312c2.883 0 4.781 1.469 5.656 2.344C318.5 163.2 319.1 165.1 319.1 168v131.1c0 4.824-3.451 6.777-4.936 7.395c-1.486 .6133-5.309 1.672-8.719-1.738l-42.91-42.91l-84.85 84.85c-3.119 3.121-8.193 3.121-11.31 0L133.3 312.7C130.2 309.6 130.2 304.5 133.3 301.4zM0 96v320c0 35.35 28.65 64 64 64h320c35.35 0 64-28.65 64-64V96c0-35.34-28.65-64-64-64H64C28.65 32 0 60.66 0 96zM16 96c0-26.47 21.53-48 48-48h320c26.47 0 48 21.53 48 48v320c0 26.47-21.53 48-48 48H64c-26.47 0-48-21.53-48-48V96z"/></svg>

<svg xmlns="http://www.w3.org/2000/svg" viewBox="0 0 448 512"><!-- Font Awesome Pro 6.0.0-alpha2 by @fontawesome - https://fontawesome.com License - https://fontawesome.com/license (Commercial License) --><path d="M122.012 290.105C112.639 299.477 112.641 314.672 122.012 324.047L155.953 357.988C165.324 367.359 180.521 367.359 189.895 357.988L263.434 284.449L295.029 316.047C310.148 331.164 336 320.453 336 299.074V168C335.998 161.371 333.314 155.375 328.971 151.031S318.627 144 312 144H180.926C159.543 144 148.834 169.852 163.955 184.969L195.551 216.566L122.012 290.105ZM133.326 301.422L218.178 216.566L175.268 173.656C171.857 170.246 172.918 166.422 173.533 164.938C174.15 163.453 176.1 160 180.926 160H312C314.883 160 316.781 161.469 317.656 162.344C318.533 163.219 319.998 165.117 319.998 168V299.074C319.998 303.898 316.547 305.852 315.063 306.469C313.576 307.082 309.754 308.141 306.344 304.73L263.434 261.82L178.58 346.672C175.461 349.793 170.387 349.793 167.268 346.672L133.326 312.734C130.205 309.613 130.205 304.539 133.326 301.422ZM0 96V416C0 451.348 28.652 480 64 480H384C419.348 480 448 451.348 448 416V96C448 60.656 419.348 32 384 32H64C28.652 32 0 60.656 0 96ZM16 96C16 69.531 37.531 48 64 48H384C410.469 48 432 69.531 432 96V416C432 442.469 410.469 464 384 464H64C37.531 464 16 442.469 16 416V96Z"/></svg>
